public/assets/img/tasks/task2/heart-broken-icon.svg

<svg width="37" height="37" viewBox="0 0 37 37" fill="none" xmlns="http://www.w3.org/2000/svg">
<foreignObject x="-82.3711" y="-71.7476" width="201.719" height="198.209"><div xmlns="http://www.w3.org/1999/xhtml" style="backdrop-filter:blur(8.05px);clip-path:url(#bgblur_0_411_57411_clip_path);height:100%;width:100%"></div></foreignObject><g opacity="0.5" filter="url(#filter0_dd_411_57411)" data-figma-bg-blur-radius="16.1">
<path d="M18.5 7.33789C20.3827 5.97572 22.709 5.37205 25.0166 5.64648C27.3242 5.92093 29.4443 7.05357 30.9551 8.81934C32.4657 10.5851 33.2568 12.8546 33.1709 15.1768C33.085 17.499 32.1283 19.7042 30.4912 21.3535L21.7695 30.0742C20.9022 30.9412 19.7263 31.4287 18.5 31.4287C17.2737 31.4287 16.0978 30.9412 15.2305 30.0742L14.9053 29.749L18.3818 23.8379L22.8066 20.3975L23.3828 19.9492L22.7568 19.5742L18.1719 16.8232L20.4375 12.7461L20.5898 12.4707L20.4082 12.2148L16.0713 6.07129C16.9326 6.36896 17.7523 6.79276 18.5 7.33789ZM12.332 5.58984C13.0881 5.53095 13.8426 5.56771 14.5801 5.69141L19.4102 12.5332L17.0625 16.7598L16.8281 17.1826L17.2432 17.4316L21.6172 20.0557L17.6934 23.1084L17.6172 23.167L17.5693 23.249L14.1748 29.0186L6.50879 21.3545C4.77436 19.6199 3.79988 17.2674 3.7998 14.8145C3.7998 12.3614 4.77434 10.0071 6.50879 8.27246C8.068 6.71289 10.1334 5.76115 12.332 5.58984Z" fill="url(#paint0_linear_411_57411)"/>
</g>
<defs>

<clipPath id="bgblur_0_411_57411_clip_path" transform="translate(82.3711 71.7476)"><path d="M18.5 7.33789C20.3827 5.97572 22.709 5.37205 25.0166 5.64648C27.3242 5.92093 29.4443 7.05357 30.9551 8.81934C32.4657 10.5851 33.2568 12.8546 33.1709 15.1768C33.085 17.499 32.1283 19.7042 30.4912 21.3535L21.7695 30.0742C20.9022 30.9412 19.7263 31.4287 18.5 31.4287C17.2737 31.4287 16.0978 30.9412 15.2305 30.0742L14.9053 29.749L18.3818 23.8379L22.8066 20.3975L23.3828 19.9492L22.7568 19.5742L18.1719 16.8232L20.4375 12.7461L20.5898 12.4707L20.4082 12.2148L16.0713 6.07129C16.9326 6.36896 17.7523 6.79276 18.5 7.33789ZM12.332 5.58984C13.0881 5.53095 13.8426 5.56771 14.5801 5.69141L19.4102 12.5332L17.0625 16.7598L16.8281 17.1826L17.2432 17.4316L21.6172 20.0557L17.6934 23.1084L17.6172 23.167L17.5693 23.249L14.1748 29.0186L6.50879 21.3545C4.77436 19.6199 3.79988 17.2674 3.7998 14.8145C3.7998 12.3614 4.77434 10.0071 6.50879 8.27246C8.068 6.71289 10.1334 5.76115 12.332 5.58984Z"/>
</clipPath><linearGradient id="paint0_linear_411_57411" x1="18.4884" y1="5.56177" x2="18.4884" y2="31.4289" gradientUnits="userSpaceOnUse">
<stop stop-color="#EA0300"/>
<stop offset="1" stop-color="#840715"/>
</linearGradient>
</defs>
</svg>

<svg xmlns="http://www.w3.org/2000/svg" width="37" height="37" fill="none" viewBox="0 0 37 37"><g clip-path="url(#a)"><foreignObject width="201.719" height="198.208" x="-82.371" y="-71.75"><div xmlns="http://www.w3.org/1999/xhtml" clip-path="url(#b)" style="backdrop-filter:blur(8.05px);height:100%;width:100%"/></foreignObject><g filter="url(#c)" opacity=".5"><path fill="url(#d)" d="M18.5 7.335a9.253 9.253 0 0 1 11.991 14.016l-8.721 8.72a4.625 4.625 0 0 1-6.54 0l-.325-.325 3.477-5.91 4.425-3.441.576-.448-.626-.375-4.585-2.751 2.265-4.078.153-.275-.182-.256-4.337-6.143A9.3 9.3 0 0 1 18.5 7.335m-6.168-1.748a9.3 9.3 0 0 1 2.248.102l4.83 6.842-2.347 4.226-.235.423.415.249 4.374 2.624-3.924 3.053-.076.058-.048.082-3.394 5.77-7.666-7.664a9.25 9.25 0 0 1 5.823-15.765"/></g></g><defs><clipPath id="b" transform="translate(82.371 71.75)"><path d="M18.5 7.335a9.253 9.253 0 0 1 11.991 14.016l-8.721 8.72a4.625 4.625 0 0 1-6.54 0l-.325-.325 3.477-5.91 4.425-3.441.576-.448-.626-.375-4.585-2.751 2.265-4.078.153-.275-.182-.256-4.337-6.143A9.3 9.3 0 0 1 18.5 7.335m-6.168-1.748a9.3 9.3 0 0 1 2.248.102l4.83 6.842-2.347 4.226-.235.423.415.249 4.374 2.624-3.924 3.053-.076.058-.048.082-3.394 5.77-7.666-7.664a9.25 9.25 0 0 1 5.823-15.765"/></clipPath><clipPath id="a"><path fill="#fff" d="M0 0h37v37H0z"/></clipPath><linearGradient id="d" x1="18.488" x2="18.488" y1="5.559" y2="31.425" gradientUnits="userSpaceOnUse"><stop stop-color="#ea0300"/><stop offset="1" stop-color="#840715"/></linearGradient><filter id="c" width="201.719" height="198.208" x="-82.371" y="-71.75" color-interpolation-filters="sRGB" filterUnits="userSpaceOnUse"><feFlood flood-opacity="0" result="BackgroundImageFix"/><feColorMatrix in="SourceAlpha" result="hardAlpha" values="0 0 0 0 0 0 0 0 0 0 0 0 0 0 0 0 0 0 127 0"/><feOffset dy="8.861"/><feGaussianBlur stdDeviation="25.918"/><feComposite in2="hardAlpha" operator="out"/><feColorMatrix values="0 0 0 0 0.917647 0 0 0 0 0.0117647 0 0 0 0 0 0 0 0 0.56 0"/><feBlend in2="BackgroundImageFix" result="effect1_dropShadow_663_4037"/><feColorMatrix in="SourceAlpha" result="hardAlpha" values="0 0 0 0 0 0 0 0 0 0 0 0 0 0 0 0 0 0 127 0"/><feOffset dy="8.861"/><feGaussianBlur stdDeviation="43.085"/><feComposite in2="hardAlpha" operator="out"/><feColorMatrix values="0 0 0 0 0.917647 0 0 0 0 0.0117647 0 0 0 0 0 0 0 0 0.53 0"/><feBlend in2="effect1_dropShadow_663_4037" result="effect2_dropShadow_663_4037"/><feBlend in="SourceGraphic" in2="effect2_dropShadow_663_4037" result="shape"/></filter></defs></svg>
